X:88
% %NRChange 2014-02-05
T: Jim's Vals
D: Fully Rigged: Aly Bain & Ale Moller
M: 3/4
R: Waltz
Q:1/4=150
K: A
%P: A
E2 |: A2>B2c2 | d2>c2B2 | c2>B2A2 | F2G2A2 |
E2e2d2 | c2>B2 A2 |[1 ^def2d2 | e4E2 :|[2 !trill!B2>A2G2 | A4 :|
%P: B
cd |: e4A2 | f2>g2a2 | e2>c2A2 | B2e2d2 |
c2F2FG | A2c2FG | A2B2G2 | E4 E2 |
A2>B2c2 | d2>c2B2 |[1 c2>B2A2 | F2G2A2 |
 E2e2d2 | c2>B2 A2 | !trill!B2>A2G2 | A4 cd :|
[2 c2e2a2 | f2e2d2 | c2F2FG | A2c2FG | A2B2G2 | A4 |]
